X:689
T:
N:Bröllopsmarsch,
S:efter »Florsen» i Burs.
O:Gotland, Burs
R:marsch
M:C
L:1/16
K:D
fe|d6 A2 d6 f2|f3e e2e2 e6 d2|c6 B2 A3gB2c2|d4 d3d d4 z2:|
|:d2|f3af3a g2b2 e3f|g3fg2b2 a2g2f2e2|d6 A2 d6 f2|f3e e2e2 e6 d2|
c6 B2 A3gB2c2|d4 d3d d6::f2|a6 f2 d6 g2|b6g2 c6 e2|b6 a2 g3ec3A|
d3A F2A2 D6 f2|a6 f2 d6 g2|b6 g2 c6e2|b6 a2 g3AB2c2|d4 d3d d6:|

